(Projekt CAD)
(Erstellt mit Estlcam Version 11 Build 11,231)
(Laufzeit ca. 00:00:29 Stunden)

(Benoetigte Werkzeuge:)
(Fraeser 3mm)
G21
G90
G94
M03 S24000
G00 Z5.0000


(Nr. 1: Ausschnitt 3)
G00 X-2.5507 Y-0.8651
G00 Z0.5000
G01 Z0.0000 F600 S24000
G01 Z-1.0000
G01 X2.3012 F1200
G01 X2.3071 Y0.9349
G01 X-2.5448
G01 X-2.7153 Y1.0397
G01 X-1.7218 Y2.7929
G01 X1.4468 Y2.8111
G01 X3.0515 Y0.0532
G01 X1.4782 Y-2.7230
G01 X-1.6904 Y-2.7413
G01 X-3.2951 Y0.0166
G01 X-2.7153 Y1.0397
G01 X-2.5448 Y0.9349
G01 Z-2.0000 F600
G01 X2.3071 F1200
G01 X2.3012 Y-0.8651
G01 X-2.5507
G01 X-2.7196 Y-0.9723
G01 X-3.2951 Y0.0166
G01 X-1.7218 Y2.7929
G01 X1.4468 Y2.8111
G01 X3.0515 Y0.0532
G01 X1.4782 Y-2.7230
G01 X-1.6904 Y-2.7413
G01 X-2.7196 Y-0.9723
G01 X-2.5507 Y-0.8651
G01 Z-3.0000 F600
G01 X2.3012 F1200
G01 X2.3071 Y0.9349
G01 X-2.5448
G01 X-2.7153 Y1.0397
G01 X-1.7218 Y2.7929
G01 X1.4468 Y2.8111
G01 X3.0515 Y0.0532
G01 X1.4782 Y-2.7230
G01 X-1.6904 Y-2.7413
G01 X-3.2951 Y0.0166
G01 X-2.7153 Y1.0397
G01 X-2.5448 Y0.9349
G01 Z-4.0000 F600
G01 X2.3071 F1200
G01 X2.3012 Y-0.8651
G01 X-2.5507
G01 X-2.7196 Y-0.9723
G01 X-3.2951 Y0.0166
G01 X-1.7218 Y2.7929
G01 X1.4468 Y2.8111
G01 X3.0515 Y0.0532
G01 X1.4782 Y-2.7230
G01 X-1.6904 Y-2.7413
G01 X-2.7196 Y-0.9723
G01 X-2.5507 Y-0.8651
G00 Z5.0000


(Nr. 2: Bohrung 11)
G00 X1.1522 Y30.1451 Z5.0000
G00 Z0.5000
G01 Z-1.0000 F600
G00 Z0.5000
G00 Z-0.5000
G01 Z-2.0000
G00 Z0.5000
G00 Z-1.5000
G01 Z-3.0000
G00 Z0.5000
G00 Z-2.5000
G01 Z-4.0000
G00 Z5.0000


(Nr. 3: Bohrung 10)
G00 X1.9062 Y32.5651 Z5.0000
G00 Z0.5000
G01 Z-1.0000 F600
G00 Z0.5000
G00 Z-0.5000
G01 Z-2.0000
G00 Z0.5000
G00 Z-1.5000
G01 Z-3.0000
G00 Z0.5000
G00 Z-2.5000
G01 Z-4.0000
G00 Z5.0000


(Nr. 4: Bohrung 9)
G00 X-0.1878 Y34.2111 Z5.0000
G00 Z0.5000
G01 Z-1.0000 F600
G00 Z0.5000
G00 Z-0.5000
G01 Z-2.0000
G00 Z0.5000
G00 Z-1.5000
G01 Z-3.0000
G00 Z0.5000
G00 Z-2.5000
G01 Z-4.0000
G00 Z5.0000


(Nr. 5: Bohrung 8)
G00 X-2.2018 Y32.5651 Z5.0000
G00 Z0.5000
G01 Z-1.0000 F600
G00 Z0.5000
G00 Z-0.5000
G01 Z-2.0000
G00 Z0.5000
G00 Z-1.5000
G01 Z-3.0000
G00 Z0.5000
G00 Z-2.5000
G01 Z-4.0000
G00 Z5.0000


(Nr. 6: Bohrung 7)
G00 X-1.4478 Y30.1451 Z5.0000
G00 Z0.5000
G01 Z-1.0000 F600
G00 Z0.5000
G00 Z-0.5000
G01 Z-2.0000
G00 Z0.5000
G00 Z-1.5000
G01 Z-3.0000
G00 Z0.5000
G00 Z-2.5000
G01 Z-4.0000
G00 Z5.0000
G00 X0.0000 Y0.0000

M05
M30
